X: 39379
T: Tanner Man
R: polka
M: 2/4
K: Gmajor
|:D|GG/B/ AA/B/|GG d>c|B/A/G AA|B>c BA|
GG/B/ AA/B/|GG d>c|B/A/G AA|G3:|
|:d|g/f/e d/c/B|cc d>c|B/A/G ce|d3 d|
g/f/e d/c/B|cc B2|B>c BA|G3:|

